X: 31181
T: Paddy Fahey's
R: reel
M: 4/4
K: Gmajor
|:G2 GF GABd|g2 eg fdcA|GFDE =FGAB|c2 Bd c=FAF
DGGF GABd|g2 eg fdcA|GFDE =FGAg|1 fdcA G2 GF:|2 fdcA G2 GF||
|:g2 gf gbag|fddd adgf|dggf gbag|fdaf g2 ga|
(3bag af gfde|fgag fdcA|G3 E =FEFD|(3Bcd eg fdcA:|

